src/assets/images/twitter1.svg

<svg fill="none" height="24" viewBox="0 0 24 24" width="24" xmlns="http://www.w3.org/2000/svg" xmlns:xlink="http://www.w3.org/1999/xlink"><clipPath id="a"><path d="m0 0h24v24h-24z"/></clipPath><g clip-path="url(#a)"><path d="m12 0c-6.627 0-12 5.373-12 12s5.373 12 12 12 12-5.373 12-12-5.373-12-12-12zm6.066 9.645c.183 4.04-2.83 8.544-8.164 8.544-1.622 0-3.131-.476-4.402-1.291 1.524.18 3.045-.244 4.252-1.189-1.256-.023-2.317-.854-2.684-1.995.451.086.895.061 1.298-.049-1.381-.278-2.335-1.522-2.304-2.853.388.215.83.344 1.301.359-1.279-.855-1.641-2.544-.889-3.835 1.416 1.738 3.533 2.881 5.92 3.001-.419-1.796.944-3.527 2.799-3.527.825 0 1.572.349 2.096.907.654-.128 1.27-.368 1.824-.697-.215.671-.67 1.233-1.263 1.589.581-.07 1.135-.224 1.649-.453-.384.578-.87 1.084-1.433 1.489z" fill="#fff"/></g></svg>

<svg width="24" height="24" viewBox="0 0 24 24" fill="none" xmlns="http://www.w3.org/2000/svg">
<g clip-path="url(#clip0_72_5384)">
<path d="M12 0C5.373 0 0 5.373 0 12C0 18.627 5.373 24 12 24C18.627 24 24 18.627 24 12C24 5.373 18.627 0 12 0ZM18.066 9.645C18.249 13.685 15.236 18.189 9.902 18.189C8.28 18.189 6.771 17.713 5.5 16.898C7.024 17.078 8.545 16.654 9.752 15.709C8.496 15.686 7.435 14.855 7.068 13.714C7.519 13.8 7.963 13.775 8.366 13.665C6.985 13.387 6.031 12.143 6.062 10.812C6.45 11.027 6.892 11.156 7.363 11.171C6.084 10.316 5.722 8.627 6.474 7.336C7.89 9.074 10.007 10.217 12.394 10.337C11.975 8.541 13.338 6.81 15.193 6.81C16.018 6.81 16.765 7.159 17.289 7.717C17.943 7.589 18.559 7.349 19.113 7.02C18.898 7.691 18.443 8.253 17.85 8.609C18.431 8.539 18.985 8.385 19.499 8.156C19.115 8.734 18.629 9.24 18.066 9.645Z" fill="white"/>
</g>
<defs>
<clipPath id="clip0_72_5384">
<rect width="24" height="24" fill="white"/>
</clipPath>
</defs>
</svg>
